nord_icons/symbolic/categories/emoji-nature-symbolic.svg

<svg xmlns="http://www.w3.org/2000/svg" width="16" height="16" version="1.1">
 <path style="fill:#9aa2af" d="m 6.0208073,1 c 0,0 -2.9940614,0 -2.9940614,2.9920087 v 4.9866812 c 0,0 0.043913,1.4152201 0.027945,1.9946731 0,0.997336 -0.6092915,1.409236 -1.4745752,2.11535 -0.62575891,0.488695 -0.77246791,1.30651 -0.3063923,1.692479 0.4291488,0.355052 1.2330543,0.303191 1.7300685,-0.342086 L 4.0217723,12.968035 C 4.7183906,11.956736 4.9830336,11.097032 5,9.9760258 V 3.9920087 C 5,2.9946725 6,3 6,3 V 9.5511609 L 9,6.4853493 V 3.9920087 C 9,2.9946725 9.9985,2.9946725 9.9985,2.9946725 l 0.003,2.4933406 2.004442,-2.0295793 C 12.343277,3.1472649 12.502484,2.9946725 12.9985,2.9946725 L 13.0015,3.9920087 9.0118907,8 h 3.9920823 c 0,0 0.003,1 -0.998021,1 H 8.0138542 L 6,10.973363 c 0,0.424865 0.017813,2.000656 2.0138542,2.000656 l 3.9950758,-0.006 c 0,0 2.994062,0 2.991068,-2.9820352 V 1 Z"/>
</svg>

<?xml version="1.0" encoding="UTF-8"?>
<svg height="16px" viewBox="0 0 16 16" width="16px" xmlns="http://www.w3.org/2000/svg">
    <path d="m 6 1 s -3 0 -3 3 v 5 s 0.042969 1.417969 0.027344 2 c 0 1 -0.535156 1.414062 -1.402344 2.121094 c -0.628906 0.488281 -0.773438 1.308594 -0.308594 1.699218 c 0.429688 0.351563 1.164063 0.300782 1.660156 -0.34375 l 1.019532 -1.476562 c 0.699218 -1.015625 0.984375 -1.875 1 -3 l 0.003906 -6 c 0 -1 0.996094 -1 0.996094 -1 v 6.574219 l 3.003906 -3.074219 v -2.5 c 0 -1 0.996094 -1 0.996094 -1 l 0.003906 2.5 l 1.996094 -2.035156 c 0.339844 -0.3125 0.503906 -0.464844 1 -0.464844 l 0.003906 1 l -4.003906 4 h 4 s 0.003906 1 -1 1 h -4 l -2 2 c 0 0.425781 0 2.007812 2 2.007812 l 4.003906 -0.007812 s 3 0 2.996094 -2.992188 v -9.007812 z m 0 0" fill="#2e3436"/>
</svg>
